packages/ffe-icons/icons/filled/sm/lock_open.svg

<svg xmlns="http://www.w3.org/2000/svg" height="20" viewBox="0 -960 960 960" width="20"><path d="M276.025-116.001q-26.543 0-45.283-18.891-18.741-18.89-18.741-45.417v-359.382q0-26.527 18.891-45.417 18.89-18.891 45.417-18.891H600v-96q0-50-35-85t-85-35q-43.385 0-76.423 27.924-33.039 27.923-40.731 69.615-1.939 11.047-10.185 16.754-8.247 5.707-18.516 5.707-10.788 0-17.966-8.999-7.178-9-4.947-19.815 8.692-60.492 56-101.838Q414.539-871.997 480-871.997q71.602 0 121.801 50.198 50.198 50.198 50.198 121.8v96h31.692q26.527 0 45.417 18.891 18.891 18.89 18.891 45.417v359.382q0 26.527-18.903 45.417-18.902 18.891-45.445 18.891H276.025Zm204.187-182q25.942 0 43.864-18.135 17.923-18.135 17.923-44.076 0-25.942-18.135-43.864-18.135-17.923-44.076-17.923-25.942 0-43.864 18.135-17.923 18.135-17.923 44.076 0 25.942 18.135 43.864 18.135 17.923 44.076 17.923Z"/></svg>

<svg xmlns="http://www.w3.org/2000/svg" height="20" viewBox="0 -960 960 960" width="20"><path d="M276.03-116q-26.55 0-45.29-18.89T212-180.31v-359.38q0-26.53 18.89-45.42T276.31-604H600v-96q0-50-35-85t-85-35q-43.38 0-76.42 27.92-33.04 27.93-40.73 69.62-1.94 11.05-10.19 16.75-8.25 5.71-18.52 5.71-10.78 0-17.96-9-7.18-9-4.95-19.81 8.69-60.5 56-101.84Q414.54-872 480-872q71.6 0 121.8 50.2T652-700v96h31.69q26.53 0 45.42 18.89T748-539.69v359.38q0 26.53-18.9 45.42Q710.19-116 683.65-116H276.03Zm204.18-182q25.94 0 43.87-18.14Q542-334.27 542-360.21t-18.14-43.87Q505.73-422 479.79-422t-43.87 18.14Q418-385.73 418-359.79t18.14 43.87Q454.27-298 480.21-298Z"/></svg>
